assets/Notebook with decorative cover/Flat/notebook_with_decorative_cover_flat.svg

<svg width="32" height="32" viewBox="0 0 32 32" fill="none" xmlns="http://www.w3.org/2000/svg">
<path d="M8 2H25C26.1046 2 27 2.89543 27 4V26H8V2Z" fill="#533566"/>
<path d="M5.5 26.5H27V29H26.5L26 29.5H5.5V26.5Z" fill="#D3D3D3"/>
<path d="M6.5 2C5.67157 2 5 2.67157 5 3.5V28H6C6 27.4477 6.44772 27 7 27H8V2H6.5Z" fill="#321B41"/>
<path d="M6.5 26C5.67157 26 5 26.6716 5 27.5V28.5C5 29.3284 5.67157 30 6.5 30H25.5C26.1531 30 26.7087 29.5826 26.9146 29H7C6.44772 29 6 28.5523 6 28C6 27.4477 6.44772 27 7 27H27V26H6.5Z" fill="#6B438B"/>
<path d="M24.0606 4.5C24.0606 4.22386 24.2845 4 24.5606 4H25.0606C25.3368 4 25.5606 4.22386 25.5606 4.5V6.5C25.5606 6.77614 25.3368 7 25.0606 7H24.5606C24.2845 7 24.0606 6.77614 24.0606 6.5V4.5ZM12.5 18C12.2238 18 12 18.2239 12 18.5V19C12 19.2761 12.2238 19.5 12.5 19.5H14.5C14.7761 19.5 15 19.2761 15 19V18.5C15 18.2239 14.7761 18 14.5 18H12.5ZM16.5 23C16.2238 23 16 23.2239 16 23.5V24C16 24.2761 16.2238 24.5 16.5 24.5H18.5C18.7761 24.5 19 24.2761 19 24V23.5C19 23.2239 18.7761 23 18.5 23H16.5ZM12.4393 5.64645C12.244 5.84171 12.244 6.15829 12.4393 6.35355L12.7929 6.70711C12.9881 6.90237 13.3047 6.90237 13.5 6.70711L14.9142 5.29289C15.1094 5.09763 15.1094 4.78105 14.9142 4.58579L14.5606 4.23223C14.3654 4.03697 14.0488 4.03697 13.8535 4.23223L12.4393 5.64645ZM16.3535 10.3535C16.1583 10.1583 16.1583 9.84168 16.3535 9.64642L17.7677 8.2322C17.963 8.03694 18.2796 8.03694 18.4748 8.2322L18.8284 8.58576C19.0237 8.78102 19.0237 9.0976 18.8284 9.29286L17.4142 10.7071C17.2189 10.9023 16.9023 10.9023 16.7071 10.7071L16.3535 10.3535ZM21.3535 13.3535C21.1583 13.1583 20.8417 13.1583 20.6464 13.3535L20.2929 13.7071C20.0976 13.9023 20.0976 14.2189 20.2929 14.4142L21.7071 15.8284C21.9023 16.0237 22.2189 16.0237 22.4142 15.8284L22.7677 15.4748C22.963 15.2796 22.963 14.963 22.7677 14.7677L21.3535 13.3535ZM24.4142 17.3536L25.8284 18.7678C26.0237 18.963 26.0237 19.2796 25.8284 19.4749L25.4748 19.8284C25.2796 20.0237 24.963 20.0237 24.7677 19.8284L23.3535 18.4142C23.1583 18.219 23.1583 17.9024 23.3535 17.7071L23.7071 17.3536C23.9023 17.1583 24.2189 17.1583 24.4142 17.3536ZM9.5002 13.3536C9.30494 13.1583 8.98835 13.1583 8.79309 13.3536L8.43954 13.7071C8.24428 13.9024 8.24428 14.219 8.43954 14.4142L9.85375 15.8284C10.049 16.0237 10.3656 16.0237 10.5609 15.8284L10.9144 15.4749C11.1097 15.2796 11.1097 14.963 10.9144 14.7678L9.5002 13.3536Z" fill="#FF6DC6"/>
<path d="M9.50026 4.35348C9.305 4.15822 8.98841 4.15822 8.79315 4.35348L8.4396 4.70703C8.24434 4.90229 8.24434 5.21888 8.4396 5.41414L9.85381 6.82835C10.0491 7.02361 10.3657 7.02361 10.5609 6.82835L10.9145 6.4748C11.1097 6.27954 11.1097 5.96295 10.9145 5.76769L9.50026 4.35348ZM12 9.50009C12 9.22395 12.2239 9.00009 12.5 9.00009H14.5C14.7761 9.00009 15 9.22395 15 9.50009V10.0001C15 10.2762 14.7761 10.5001 14.5 10.5001H12.5C12.2239 10.5001 12 10.2762 12 10.0001V9.50009ZM16 14.5001C16 14.2239 16.2239 14.0001 16.5 14.0001H18.5C18.7761 14.0001 19 14.2239 19 14.5001V15.0001C19 15.2762 18.7761 15.5001 18.5 15.5001H16.5C16.2239 15.5001 16 15.2762 16 15.0001V14.5001ZM20.6465 4.35364C20.8417 4.15838 21.1583 4.15838 21.3536 4.35364L22.7678 5.76785C22.963 5.96312 22.963 6.2797 22.7678 6.47496L22.4142 6.82851C22.219 7.02378 21.9024 7.02378 21.7071 6.82851L20.2929 5.4143C20.0976 5.21904 20.0976 4.90246 20.2929 4.70719L20.6465 4.35364ZM24.4749 8.35359C24.2796 8.15833 23.9631 8.15833 23.7678 8.35359L23.4142 8.70715C23.219 8.90241 23.219 9.21899 23.4142 9.41425L24.8284 10.8285C25.0237 11.0237 25.3403 11.0237 25.5356 10.8285L25.8891 10.4749C26.0844 10.2797 26.0844 9.96307 25.8891 9.76781L24.4749 8.35359ZM12.3536 24.3536C12.1583 24.1584 12.1583 23.8418 12.3536 23.6465L13.7678 22.2323C13.963 22.037 14.2796 22.037 14.4749 22.2323L14.8284 22.5859C15.0237 22.7811 15.0237 23.0977 14.8284 23.293L13.4142 24.7072C13.219 24.9024 12.9024 24.9024 12.7071 24.7072L12.3536 24.3536ZM9.42703 16.9999C9.15089 16.9999 8.92703 17.2237 8.92703 17.4999V19.4999C8.92703 19.776 9.15089 19.9999 9.42703 19.9999H9.92703C10.2032 19.9999 10.427 19.776 10.427 19.4999V17.4999C10.427 17.2237 10.2032 16.9999 9.92703 16.9999H9.42703ZM24.0607 22.5C24.0607 22.2239 24.2845 22 24.5607 22H25.0607C25.3368 22 25.5607 22.2239 25.5607 22.5V24.5C25.5607 24.7762 25.3368 25 25.0607 25H24.5607C24.2845 25 24.0607 24.7762 24.0607 24.5V22.5ZM20.5 18.0001C20.2239 18.0001 20 18.2239 20 18.5001V19.0001C20 19.2762 20.2239 19.5001 20.5 19.5001H22.5C22.7761 19.5001 23 19.2762 23 19.0001V18.5001C23 18.2239 22.7761 18.0001 22.5 18.0001H20.5Z" fill="#9B9B9B"/>
<path d="M16.75 5C16.3358 5 16 5.33579 16 5.75C16 6.16421 16.3358 6.5 16.75 6.5H18.25C18.6642 6.5 19 6.16421 19 5.75C19 5.33579 18.6642 5 18.25 5H16.75ZM9.67706 8C9.26285 8 8.92706 8.33579 8.92706 8.75V10.25C8.92706 10.6642 9.26285 11 9.67706 11C10.0913 11 10.4271 10.6642 10.4271 10.25V8.75C10.4271 8.33579 10.0913 8 9.67706 8ZM24.8107 13C24.3965 13 24.0607 13.3358 24.0607 13.75V15.25C24.0607 15.6642 24.3965 16 24.8107 16C25.2249 16 25.5607 15.6642 25.5607 15.25V13.75C25.5607 13.3358 25.2249 13 24.8107 13ZM20 9.75C20 9.33579 20.3358 9 20.75 9H22.25C22.6642 9 23 9.33579 23 9.75C23 10.1642 22.6642 10.5 22.25 10.5H20.75C20.3358 10.5 20 10.1642 20 9.75ZM12.5304 15.5303C12.2375 15.2374 12.2375 14.7626 12.5304 14.4697L13.591 13.409C13.8839 13.1161 14.3588 13.1161 14.6517 13.409C14.9446 13.7019 14.9446 14.1768 14.6517 14.4697L13.591 15.5303C13.2981 15.8232 12.8233 15.8232 12.5304 15.5303ZM16.5304 18.4697C16.2375 18.7626 16.2375 19.2374 16.5304 19.5303C16.8233 19.8232 17.2981 19.8232 17.591 19.5303L18.6517 18.4697C18.9446 18.1768 18.9446 17.7019 18.6517 17.409C18.3588 17.1161 17.8839 17.1161 17.591 17.409L16.5304 18.4697ZM20.4697 22.5303C20.7626 22.2374 21.2375 22.2374 21.5304 22.5303L22.591 23.591C22.8839 23.8839 22.8839 24.3588 22.591 24.6516C22.2981 24.9445 21.8233 24.9445 21.5304 24.6516L20.4697 23.591C20.1768 23.2981 20.1768 22.8232 20.4697 22.5303ZM9.67706 22.5303C9.38417 22.2374 8.90929 22.2374 8.6164 22.5303C8.32351 22.8232 8.32351 23.2981 8.6164 23.591L9.67706 24.6516C9.96995 24.9445 10.4448 24.9445 10.7377 24.6516C11.0306 24.3588 11.0306 23.8839 10.7377 23.591L9.67706 22.5303Z" fill="#5092FF"/>
</svg>

<svg xmlns="http://www.w3.org/2000/svg" width="32" height="32" fill="none"><path fill="#533566" d="M8 2h17a2 2 0 0 1 2 2v22H8V2Z"/><path fill="#D3D3D3" d="M5.5 26.5H27V29h-.5l-.5.5H5.5v-3Z"/><path fill="#321B41" d="M6.5 2A1.5 1.5 0 0 0 5 3.5V28h1a1 1 0 0 1 1-1h1V2H6.5Z"/><path fill="#6B438B" d="M6.5 26A1.5 1.5 0 0 0 5 27.5v1A1.5 1.5 0 0 0 6.5 30h19a1.5 1.5 0 0 0 1.415-1H7a1 1 0 1 1 0-2h20v-1H6.5Z"/><path fill="#FF6DC6" d="M24.06 4.5a.5.5 0 0 1 .5-.5h.5a.5.5 0 0 1 .5.5v2a.5.5 0 0 1-.5.5h-.5a.5.5 0 0 1-.5-.5v-2ZM12.5 18a.5.5 0 0 0-.5.5v.5a.5.5 0 0 0 .5.5h2a.5.5 0 0 0 .5-.5v-.5a.5.5 0 0 0-.5-.5h-2Zm4 5a.5.5 0 0 0-.5.5v.5a.5.5 0 0 0 .5.5h2a.5.5 0 0 0 .5-.5v-.5a.5.5 0 0 0-.5-.5h-2ZM12.44 5.646a.5.5 0 0 0 0 .708l.353.353a.5.5 0 0 0 .707 0l1.414-1.414a.5.5 0 0 0 0-.707l-.353-.354a.5.5 0 0 0-.707 0l-1.415 1.414Zm3.914 4.708a.5.5 0 0 1 0-.708l1.414-1.414a.5.5 0 0 1 .707 0l.353.354a.5.5 0 0 1 0 .707l-1.414 1.414a.5.5 0 0 1-.707 0l-.354-.354Zm5 3a.5.5 0 0 0-.708 0l-.353.353a.5.5 0 0 0 0 .707l1.414 1.414a.5.5 0 0 0 .707 0l.354-.353a.5.5 0 0 0 0-.707l-1.415-1.415Zm3.06 4 1.414 1.414a.5.5 0 0 1 0 .707l-.353.353a.5.5 0 0 1-.707 0l-1.415-1.414a.5.5 0 0 1 0-.707l.354-.353a.5.5 0 0 1 .707 0Zm-14.914-4a.5.5 0 0 0-.707 0l-.353.353a.5.5 0 0 0 0 .707l1.414 1.414a.5.5 0 0 0 .707 0l.353-.353a.5.5 0 0 0 0-.707L9.5 13.354Z"/><path fill="#9B9B9B" d="M9.5 4.353a.5.5 0 0 0-.707 0l-.353.354a.5.5 0 0 0 0 .707l1.414 1.414a.5.5 0 0 0 .707 0l.354-.353a.5.5 0 0 0 0-.707L9.5 4.353ZM12 9.5a.5.5 0 0 1 .5-.5h2a.5.5 0 0 1 .5.5v.5a.5.5 0 0 1-.5.5h-2a.5.5 0 0 1-.5-.5v-.5Zm4 5a.5.5 0 0 1 .5-.5h2a.5.5 0 0 1 .5.5v.5a.5.5 0 0 1-.5.5h-2a.5.5 0 0 1-.5-.5v-.5Zm4.646-10.146a.5.5 0 0 1 .708 0l1.414 1.414a.5.5 0 0 1 0 .707l-.354.354a.5.5 0 0 1-.707 0l-1.414-1.415a.5.5 0 0 1 0-.707l.354-.353Zm3.829 4a.5.5 0 0 0-.707 0l-.354.353a.5.5 0 0 0 0 .707l1.414 1.415a.5.5 0 0 0 .708 0l.353-.354a.5.5 0 0 0 0-.707l-1.414-1.414Zm-12.121 16a.5.5 0 0 1 0-.707l1.414-1.415a.5.5 0 0 1 .707 0l.353.354a.5.5 0 0 1 0 .707l-1.414 1.414a.5.5 0 0 1-.707 0l-.353-.353ZM9.427 17a.5.5 0 0 0-.5.5v2a.5.5 0 0 0 .5.5h.5a.5.5 0 0 0 .5-.5v-2a.5.5 0 0 0-.5-.5h-.5Zm14.634 5.5a.5.5 0 0 1 .5-.5h.5a.5.5 0 0 1 .5.5v2a.5.5 0 0 1-.5.5h-.5a.5.5 0 0 1-.5-.5v-2ZM20.5 18a.5.5 0 0 0-.5.5v.5a.5.5 0 0 0 .5.5h2a.5.5 0 0 0 .5-.5v-.5a.5.5 0 0 0-.5-.5h-2Z"/><path fill="#5092FF" d="M16.75 5a.75.75 0 0 0 0 1.5h1.5a.75.75 0 0 0 0-1.5h-1.5ZM9.677 8a.75.75 0 0 0-.75.75v1.5a.75.75 0 0 0 1.5 0v-1.5a.75.75 0 0 0-.75-.75Zm15.134 5a.75.75 0 0 0-.75.75v1.5a.75.75 0 0 0 1.5 0v-1.5a.75.75 0 0 0-.75-.75ZM20 9.75a.75.75 0 0 1 .75-.75h1.5a.75.75 0 0 1 0 1.5h-1.5a.75.75 0 0 1-.75-.75Zm-7.47 5.78a.75.75 0 0 1 0-1.06l1.061-1.061a.75.75 0 0 1 1.06 1.06l-1.06 1.061a.75.75 0 0 1-1.06 0Zm4 2.94a.75.75 0 1 0 1.061 1.06l1.06-1.06a.75.75 0 0 0-1.06-1.061l-1.06 1.06Zm3.94 4.06a.75.75 0 0 1 1.06 0l1.061 1.061a.75.75 0 1 1-1.06 1.06l-1.061-1.06a.75.75 0 0 1 0-1.06Zm-10.793 0a.75.75 0 1 0-1.06 1.061l1.06 1.06a.75.75 0 1 0 1.06-1.06l-1.06-1.06Z"/></svg>
